webapp/src/assets/icons/cloudproviders/aws/networking_content_delivery/elb_classic_load_balancer.svg

<?xml version="1.0" encoding="UTF-8"?>
<svg width="48px" height="48px" viewBox="0 0 48 48" version="1.1" xmlns="http://www.w3.org/2000/svg" xmlns:xlink="http://www.w3.org/1999/xlink">
    <title>Icon-Resource/Networking-and-Content-Delivery/Res_Elastic-Load-Balancing_Classic-Load-Balancer_48</title>
    <g id="Icon-Resource/Networking-and-Content-Delivery/Res_Elastic-Load-Balancing_Classic-Load-Balancer_48" stroke="none" stroke-width="1" fill="none" fill-rule="evenodd">
        <path d="M24.0015,44.002 C12.9725,44.002 3.9995,35.029 3.9995,24.001 C3.9995,12.973 12.9725,4 24.0015,4 C35.0295,4 44.0025,12.973 44.0025,24.001 C44.0025,35.029 35.0295,44.002 24.0015,44.002 L24.0015,44.002 Z M24.0015,2 C11.8695,2 1.9995,11.869 1.9995,24.001 C1.9995,36.133 11.8695,46.002 24.0015,46.002 C36.1335,46.002 46.0025,36.133 46.0025,24.001 C46.0025,11.869 36.1335,2 24.0015,2 L24.0015,2 Z M27.0645,27.235 C27.4605,27.235 27.7835,27.551 27.7835,27.939 C27.7835,28.326 27.4605,28.642 27.0645,28.642 C26.6675,28.642 26.3445,28.326 26.3445,27.939 C26.3445,27.551 26.6675,27.235 27.0645,27.235 L27.0645,27.235 Z M20.0635,25.142 C19.6665,25.142 19.3435,24.826 19.3435,24.439 C19.3435,24.051 19.6665,23.735 20.0635,23.735 C20.4605,23.735 20.7835,24.051 20.7835,24.439 C20.7835,24.826 20.4605,25.142 20.0635,25.142 L20.0635,25.142 Z M27.0645,20.275 C27.4295,20.275 27.7265,20.573 27.7265,20.939 C27.7265,21.304 27.4295,21.601 27.0645,21.601 C26.6985,21.601 26.4005,21.304 26.4005,20.939 C26.4005,20.573 26.6985,20.275 27.0645,20.275 L27.0645,20.275 Z M22.7615,24.216 L25.3195,22.934 C25.7885,23.344 26.3945,23.601 27.0645,23.601 C28.5315,23.601 29.7265,22.406 29.7265,20.939 C29.7265,19.47 28.5315,18.275 27.0645,18.275 C25.5955,18.275 24.4005,19.47 24.4005,20.939 C24.4005,21.009 24.4165,21.076 24.4225,21.146 L21.8635,22.428 C21.3825,22.002 20.7565,21.735 20.0635,21.735 C18.5635,21.735 17.3435,22.948 17.3435,24.439 C17.3435,25.929 18.5635,27.142 20.0635,27.142 C20.8445,27.142 21.5445,26.809 22.0405,26.283 L24.3805,27.583 C24.3645,27.7 24.3445,27.816 24.3445,27.939 C24.3445,29.429 25.5635,30.642 27.0645,30.642 C28.5635,30.642 29.7835,29.429 29.7835,27.939 C29.7835,26.448 28.5635,25.235 27.0645,25.235 C26.4195,25.235 25.8335,25.469 25.3665,25.843 L22.7805,24.407 C22.7795,24.342 22.7675,24.28 22.7615,24.216 L22.7615,24.216 Z M24.4385,31.751 C20.4065,31.751 17.1255,28.508 17.1255,24.521 C17.1255,20.533 20.4065,17.289 24.4385,17.289 C28.4715,17.289 31.7515,20.533 31.7515,24.521 C31.7515,28.508 28.4715,31.751 24.4385,31.751 L24.4385,31.751 Z M24.4385,15.289 C19.3035,15.289 15.1255,19.431 15.1255,24.521 C15.1255,29.61 19.3035,33.751 24.4385,33.751 C29.5735,33.751 33.7515,29.61 33.7515,24.521 C33.7515,19.431 29.5735,15.289 24.4385,15.289 L24.4385,15.289 Z M14.5005,37.002 L14.5005,10.128 L29.1265,10.125 L29.1265,14.375 C29.1265,14.928 29.5735,15.375 30.1265,15.375 L34.3765,15.375 L34.3765,37.002 L14.5005,37.002 Z M31.1265,11.539 L32.9625,13.375 L31.1265,13.375 L31.1265,11.539 Z M36.0835,13.668 L30.8335,8.418 C30.6425,8.227 30.3875,8.134 30.1265,8.134 L30.1265,8.125 L13.5005,8.128 C12.9475,8.128 12.5005,8.576 12.5005,9.128 L12.5005,38.002 C12.5005,38.555 12.9475,39.002 13.5005,39.002 L35.3765,39.002 C35.9295,39.002 36.3765,38.555 36.3765,38.002 L36.3765,14.375 L36.3675,14.375 C36.3675,14.115 36.2745,13.859 36.0835,13.668 L36.0835,13.668 Z" id="AWS-Elastic-Load-Balancing_Classic-Load-Balancer_Resource-Icon_light-bg" fill="#8C4FFF"></path>
    </g>
</svg>

<svg width="48" height="48" xmlns="http://www.w3.org/2000/svg"><path d="M24.002 44.002C12.972 44.002 4 35.029 4 24.001S12.973 4 24.002 4c11.027 0 20 8.973 20 20.001s-8.973 20.001-20 20.001Zm0-42.002C11.87 2 2 11.869 2 24.001c0 12.132 9.87 22.001 22.002 22.001 12.131 0 22-9.869 22-22.001 0-12.132-9.869-22.001-22-22.001Zm3.063 25.235c.395 0 .718.316.718.704a.713.713 0 0 1-.719.703.713.713 0 0 1-.72-.703c0-.388.323-.704.72-.704Zm-7.002-2.093a.713.713 0 0 1-.72-.703c0-.388.323-.704.72-.704.398 0 .72.316.72.704a.713.713 0 0 1-.72.703Zm7.002-4.867a.664.664 0 1 1-.004 1.328.664.664 0 0 1 .003-1.328Zm-4.303 3.941 2.558-1.282a2.64 2.64 0 0 0 1.744.667 2.666 2.666 0 0 0 2.663-2.662 2.667 2.667 0 0 0-2.663-2.664 2.667 2.667 0 0 0-2.663 2.664c0 .07.015.137.021.207l-2.559 1.282a2.706 2.706 0 0 0-1.8-.693c-1.5 0-2.72 1.213-2.72 2.704a2.715 2.715 0 0 0 4.698 1.844l2.34 1.3c-.017.117-.037.233-.037.356a2.714 2.714 0 0 0 2.72 2.703 2.715 2.715 0 0 0 2.72-2.703 2.715 2.715 0 0 0-2.72-2.704 2.71 2.71 0 0 0-1.698.608l-2.585-1.436c-.002-.065-.014-.127-.02-.191Zm1.677 7.535c-4.032 0-7.314-3.243-7.314-7.23 0-3.988 3.282-7.232 7.314-7.232s7.313 3.244 7.313 7.232c0 3.987-3.28 7.23-7.313 7.23Zm0-16.462c-5.136 0-9.313 4.142-9.313 9.232 0 5.089 4.178 9.23 9.313 9.23 5.134 0 9.313-4.141 9.313-9.23 0-5.09-4.179-9.232-9.314-9.232ZM14.5 37.002V10.128l14.626-.003v4.25a1 1 0 0 0 1 1h4.25v21.627H14.5Zm16.625-25.463 1.836 1.836h-1.836v-1.836Zm4.957 2.129-5.25-5.25a.99.99 0 0 0-.706-.284v-.009L13.5 8.128a1 1 0 0 0-1 1v28.874a1 1 0 0 0 1 1h21.875a1 1 0 0 0 1-1V14.375h-.008a.991.991 0 0 0-.285-.707Z" fill="#8C4FFF" fill-rule="evenodd"/></svg>
